blockchains/ethereum/assets/0x967da4048cD07aB37855c090aAF366e4ce1b9F48/logo.svg

<svg fill="none" height="250" viewBox="0 0 250 250" width="250" xmlns="http://www.w3.org/2000/svg" xmlns:xlink="http://www.w3.org/1999/xlink"><clipPath id="a"><path d="m0 0h250v250h-250z"/></clipPath><g clip-path="url(#a)"><circle cx="125" cy="125" fill="#fff" r="125"/><path d="m62.9846 121.878c.0009 1.753-.5241 3.467-1.5087 4.925-.9845 1.457-2.3843 2.594-4.0224 3.265-1.638.672-3.4407.848-5.1801.506-1.7393-.341-3.3372-1.185-4.5914-2.424s-2.1085-2.818-2.4548-4.537-.169-3.501.5094-5.12 1.8275-3.004 3.3019-3.978c1.4744-.973 3.2078-1.493 4.9811-1.493 2.3769 0 4.6565.933 6.3376 2.594 1.6812 1.66 2.6262 3.913 2.6274 6.262zm142.4404 0c.001 1.753-.524 3.467-1.509 4.925s-2.385 2.594-4.023 3.266c-1.638.671-3.441.847-5.181.505-1.739-.342-3.337-1.186-4.591-2.425-1.254-1.24-2.108-2.819-2.454-4.538-.346-1.72-.168-3.502.511-5.121s1.829-3.003 3.304-3.977c1.475-.973 3.209-1.492 4.983-1.491 2.372.006 4.646.941 6.323 2.601 1.676 1.661 2.618 3.91 2.619 6.255zm-71.218 34.958c.001 1.753-.524 3.466-1.509 4.924s-2.385 2.595-4.023 3.266-3.441.847-5.181.505c-1.739-.342-3.337-1.186-4.591-2.425-1.254-1.24-2.108-2.819-2.454-4.538-.346-1.72-.168-3.502.511-5.121s1.829-3.003 3.304-3.977c1.475-.973 3.209-1.492 4.983-1.491 2.376.001 4.654.935 6.334 2.595 1.68 1.661 2.625 3.913 2.626 6.262zm-35.8554-17.258c0 1.753-.5258 3.466-1.5109 4.923s-2.3852 2.593-4.0234 3.264c-1.6381.671-3.4407.846-5.1797.504s-3.3364-1.186-4.5902-2.425-2.1076-2.818-2.4535-4.537c-.346-1.719-.1684-3.501.5101-5.12.6786-1.619 1.8276-3.003 3.3019-3.976 1.4743-.974 3.2076-1.494 4.9807-1.494 2.3777 0 4.6579.934 6.3392 2.596 1.6813 1.661 2.6258 3.915 2.6258 6.265zm71.2224 0c.005 1.755-.518 3.471-1.501 4.931-.983 1.461-2.383 2.6-4.022 3.274-1.639.673-3.443.851-5.184.51s-3.34-1.185-4.596-2.425c-1.255-1.24-2.11-2.821-2.455-4.541-.346-1.721-.167-3.504.514-5.125.68-1.62 1.832-3.004 3.309-3.976 1.477-.973 3.213-1.49 4.988-1.486 2.371.004 4.643.937 6.32 2.593 1.676 1.657 2.621 3.902 2.627 6.245zm-109.4978 9.121c-.0009 1.184-.357 2.341-1.0232 3.325-.6663.984-1.6128 1.75-2.7198 2.203-1.107.452-2.3249.57-3.4996.338s-2.2534-.803-3.0998-1.641-1.4224-1.905-1.6553-3.066c-.2328-1.162-.1119-2.365.3473-3.459.4592-1.093 1.2362-2.028 2.2327-2.685s2.1678-1.007 3.3656-1.006c.7954 0 1.5829.156 2.3175.457.7345.302 1.4019.743 1.9639 1.299.562.557 1.0076 1.217 1.3114 1.943.3038.727.4599 1.506.4593 2.292zm142.4408 0c-.001 1.184-.357 2.341-1.024 3.325-.666.984-1.612 1.75-2.719 2.203-1.107.452-2.325.57-3.5.338s-2.253-.803-3.1-1.641c-.846-.838-1.422-1.905-1.655-3.066-.233-1.162-.112-2.365.347-3.459.459-1.093 1.236-2.028 2.233-2.685.996-.657 2.168-1.007 3.366-1.006 1.605.001 3.145.632 4.281 1.755 1.135 1.122 1.774 2.644 1.775 4.231zm-71.218 35.431c.001 1.184-.354 2.342-1.019 3.327s-1.611 1.753-2.718 2.207-2.325.573-3.5.342c-1.176-.231-2.255-.801-3.103-1.639-.847-.837-1.424-1.904-1.657-3.066-.234-1.162-.114-2.366.345-3.46s1.236-2.029 2.233-2.686c.997-.658 2.168-1.008 3.367-1.007 1.604.002 3.142.633 4.276 1.755 1.135 1.121 1.773 2.641 1.776 4.227zm-35.8513-17.727c0 1.184-.3553 2.342-1.021 3.326-.6657.985-1.6119 1.752-2.7189 2.205-1.1069.453-2.3249.571-3.4999.34s-2.2542-.802-3.101-1.639c-.8469-.838-1.4234-1.905-1.6565-3.067-.2332-1.161-.1126-2.365.3465-3.459s1.2361-2.028 2.2327-2.686c.9965-.657 2.168-1.007 3.366-1.006.7952 0 1.5825.155 2.3171.455.7346.301 1.4019.742 1.964 1.298.562.556 1.0077 1.216 1.3116 1.943.3039.726.46 1.504.4594 2.29zm71.2223 0c.003 1.185-.35 2.344-1.015 3.331-.664.986-1.61 1.756-2.717 2.211-1.108.454-2.327.574-3.503.343-1.176-.23-2.256-.8-3.104-1.639-.848-.838-1.425-1.905-1.658-3.068-.234-1.162-.112-2.367.348-3.462.46-1.094 1.238-2.029 2.236-2.686.998-.656 2.171-1.006 3.37-1.003 1.601.005 3.135.636 4.266 1.755 1.132 1.119 1.769 2.636 1.773 4.218zm-109.4977 3.362c0 .619-.1857 1.224-.5336 1.739-.3479.514-.8424.916-1.421 1.152-.5785.237-1.2152.299-1.8294.179-.6141-.121-1.1783-.419-1.6211-.857s-.7444-.995-.8666-1.602c-.1221-.607-.0594-1.237.1802-1.809.2397-.571.6455-1.06 1.1662-1.404s1.1328-.527 1.7591-.527c.8397 0 1.645.329 2.2388.916s.9274 1.383.9274 2.213zm142.4407 0c0 .619-.186 1.224-.534 1.739-.348.514-.842.916-1.421 1.152-.578.237-1.215.299-1.829.179-.614-.121-1.179-.419-1.621-.857-.443-.438-.745-.995-.867-1.602s-.059-1.237.18-1.809c.24-.571.646-1.06 1.166-1.404.521-.344 1.133-.527 1.759-.527.84 0 1.645.329 2.239.916s.928 1.383.928 2.213zm-71.223 35.44c0 .619-.185 1.224-.533 1.739-.348.514-.843.916-1.421 1.152-.579.237-1.216.299-1.83.178-.614-.12-1.178-.418-1.621-.856s-.744-.995-.866-1.602c-.123-.607-.06-1.237.18-1.809.239-.571.645-1.06 1.166-1.404s1.133-.527 1.759-.527c.84 0 1.645.329 2.239.916s.927 1.383.927 2.213zm-35.8507-17.718c0 .619-.1857 1.224-.5336 1.739s-.8425.916-1.421 1.153c-.5786.237-1.2152.298-1.8294.178-.6142-.121-1.1783-.419-1.6211-.857-.4429-.437-.7444-.995-.8666-1.602s-.0595-1.236.1802-1.808c.2396-.572.6455-1.061 1.1662-1.405.5206-.344 1.1328-.527 1.759-.527.8398 0 1.6451.329 2.2389.916s.9274 1.383.9274 2.213zm71.2227 0c0 .619-.186 1.224-.534 1.739s-.842.916-1.421 1.153c-.578.237-1.215.298-1.829.178-.614-.121-1.179-.419-1.621-.857-.443-.437-.745-.995-.867-1.602s-.059-1.236.18-1.808c.24-.572.646-1.061 1.166-1.405.521-.344 1.133-.527 1.759-.527.84 0 1.646.329 2.239.916.594.587.928 1.383.928 2.213zm-26.656-133.8462c0 2.3683-.71 4.6835-2.042 6.6526-1.331 1.9691-3.223 3.5037-5.437 4.4096s-4.65 1.1425-7 .6798-4.509-1.6039-6.202-3.2792c-1.694-1.6753-2.847-3.8095-3.313-6.1326-.467-2.323-.225-4.7306.693-6.9182s2.472-4.0569 4.465-5.3714 4.336-2.0152 6.732-2.0134c3.211.0023 6.29 1.2648 8.56 3.5099 2.269 2.2451 3.544 5.289 3.544 8.4629zm0 35.4176c0 2.3681-.71 4.6831-2.041 6.6522-1.332 1.969-3.224 3.5035-5.437 4.4094-2.214.906-4.65 1.143-7 .681-2.349-.463-4.508-1.6033-6.202-3.2782-1.693-1.6749-2.847-3.8086-3.314-6.1314s-.226-4.7303.691-6.9179c.918-2.1877 2.471-4.0573 4.464-5.3723 1.992-1.3151 4.335-2.0165 6.731-2.0156 3.212.0012 6.292 1.2631 8.562 3.5083 2.271 2.2452 3.546 5.2899 3.546 8.4645zm0 34.9616c0 2.368-.71 4.683-2.041 6.652-1.332 1.969-3.224 3.504-5.437 4.41-2.214.906-4.65 1.143-7 .68-2.349-.462-4.508-1.603-6.202-3.278-1.693-1.674-2.847-3.808-3.314-6.131s-.226-4.73.691-6.918c.918-2.188 2.471-4.057 4.464-5.372 1.992-1.315 4.335-2.017 6.731-2.016 1.592.001 3.168.311 4.638.915 1.47.603 2.806 1.486 3.931 2.6 1.124 1.113 2.016 2.435 2.623 3.89.607 1.454.919 3.012.916 4.586zm71.227-34.9616c0 2.368-.71 4.6828-2.041 6.6517s-3.223 3.5035-5.436 4.4099c-2.214.906-4.649 1.143-6.999.681s-4.508-1.6022-6.202-3.2766-2.848-3.8078-3.315-6.1303c-.468-2.3225-.228-4.7298.689-6.9175.917-2.1878 2.47-4.0577 4.462-5.3732 1.992-1.3156 4.333-2.0178 6.729-2.0178 3.213 0 6.294 1.2614 8.566 3.5067 2.271 2.2454 3.547 5.2907 3.547 8.4661zm-142.44 0c.0036 2.3687-.7038 4.6853-2.0326 6.6566-1.3288 1.9712-3.2194 3.5086-5.4325 4.418-2.213.908-4.6491 1.148-7.0001.688-2.3509-.46-4.5109-1.5987-6.2068-3.2724-1.6958-1.6737-2.8513-3.807-3.3202-6.13-.4688-2.323-.23-4.7312.6863-6.92s2.4688-4.0597 4.4612-5.3761 4.3351-2.019 6.7316-2.019c3.2095 0 6.2878 1.2589 8.5589 3.5004s3.5495 5.2822 3.5542 8.4545zm35.851-17.7178c.004 2.368-.703 4.6839-2.0314 6.6547-1.328 1.9709-3.2175 3.5083-5.4295 4.4177-2.212.9095-4.6472 1.1502-6.9977.6917-2.3504-.4585-4.5104-1.5956-6.207-3.2675-1.6966-1.672-2.8535-3.8036-3.3244-6.1254s-.2347-4.7295.6788-6.9186c.9136-2.1891 2.4633-4.0612 4.4533-5.3798 1.99-1.3185 4.3309-2.0241 6.7267-2.0277 3.2126 0 6.2936 1.2614 8.5652 3.5068 2.272 2.2453 3.548 5.2906 3.548 8.466zm-.018 34.9754c0 2.368-.711 4.682-2.0415 6.651-1.331 1.969-3.2229 3.504-5.4362 4.41-2.2134.906-4.649 1.143-6.9987.681s-4.5081-1.602-6.2021-3.276c-1.6941-1.675-2.8478-3.808-3.3151-6.131-.4674-2.322-.2276-4.729.6893-6.917.9168-2.1879 2.4693-4.0578 4.4613-5.3734s4.334-2.0178 6.7298-2.0178c3.2126 0 6.2936 1.2615 8.5652 3.5068 2.272 2.2454 3.548 5.2904 3.548 8.4664zm71.24-34.9575c0 2.368-.71 4.6828-2.041 6.6517s-3.223 3.5035-5.436 4.4097c-2.214.9062-4.649 1.1433-6.999.6813-2.35-.4619-4.508-1.6022-6.202-3.2767-1.694-1.6744-2.848-3.8077-3.315-6.1302s-.228-4.7298.689-6.9176c.917-2.1877 2.47-4.0576 4.462-5.3732s4.334-2.0178 6.729-2.0178c3.213 0 6.294 1.2614 8.566 3.5068 2.271 2.2453 3.547 5.2906 3.547 8.466zm0 34.9575c0 2.368-.71 4.682-2.041 6.651s-3.223 3.504-5.436 4.41c-2.214.906-4.649 1.143-6.999.681s-4.508-1.602-6.202-3.276c-1.694-1.675-2.848-3.808-3.315-6.131-.467-2.322-.228-4.729.689-6.917.917-2.1879 2.47-4.0578 4.462-5.3734s4.334-2.0178 6.729-2.0178c3.213 0 6.294 1.2615 8.566 3.5068 2.271 2.2454 3.547 5.2904 3.547 8.4664z" fill="#000"/></g></svg>

<svg width="250" height="250" viewBox="0 0 250 250" fill="none" xmlns="http://www.w3.org/2000/svg">
<g clip-path="url(#clip0_37_33895)">
<circle cx="125" cy="125" r="125" fill="white"/>
<path d="M62.9846 121.878C62.9855 123.631 62.4605 125.345 61.4759 126.803C60.4914 128.26 59.0916 129.397 57.4535 130.068C55.8155 130.74 54.0128 130.916 52.2734 130.574C50.5341 130.233 48.9362 129.389 47.682 128.15C46.4278 126.911 45.5735 125.332 45.2272 123.613C44.8809 121.894 45.0582 120.112 45.7366 118.493C46.415 116.874 47.5641 115.489 49.0385 114.515C50.5129 113.542 52.2463 113.022 54.0196 113.022C56.3965 113.022 58.6761 113.955 60.3572 115.616C62.0384 117.276 62.9834 119.529 62.9846 121.878ZM205.425 121.878C205.426 123.631 204.901 125.345 203.916 126.803C202.931 128.261 201.531 129.397 199.893 130.069C198.255 130.74 196.452 130.916 194.712 130.574C192.973 130.232 191.375 129.388 190.121 128.149C188.867 126.909 188.013 125.33 187.667 123.611C187.321 121.891 187.499 120.109 188.178 118.49C188.857 116.871 190.007 115.487 191.482 114.513C192.957 113.54 194.691 113.021 196.465 113.022C198.837 113.028 201.111 113.963 202.788 115.623C204.464 117.284 205.406 119.533 205.407 121.878H205.425ZM134.207 156.836C134.208 158.589 133.683 160.302 132.698 161.76C131.713 163.218 130.313 164.355 128.675 165.026C127.037 165.697 125.234 165.873 123.494 165.531C121.755 165.189 120.157 164.345 118.903 163.106C117.649 161.866 116.795 160.287 116.449 158.568C116.103 156.848 116.281 155.066 116.96 153.447C117.639 151.828 118.789 150.444 120.264 149.47C121.739 148.497 123.473 147.978 125.247 147.979C127.623 147.98 129.901 148.914 131.581 150.574C133.261 152.235 134.206 154.487 134.207 156.836ZM98.3516 139.578C98.3516 141.331 97.8258 143.044 96.8407 144.501C95.8556 145.958 94.4555 147.094 92.8173 147.765C91.1792 148.436 89.3766 148.611 87.6376 148.269C85.8986 147.927 84.3012 147.083 83.0474 145.844C81.7936 144.605 80.9398 143.026 80.5939 141.307C80.2479 139.588 80.4255 137.806 81.104 136.187C81.7826 134.568 82.9316 133.184 84.4059 132.211C85.8802 131.237 87.6135 130.717 89.3866 130.717C91.7643 130.717 94.0445 131.651 95.7258 133.313C97.4071 134.974 98.3516 137.228 98.3516 139.578ZM169.574 139.578C169.579 141.333 169.056 143.049 168.073 144.509C167.09 145.97 165.69 147.109 164.051 147.783C162.412 148.456 160.608 148.634 158.867 148.293C157.126 147.952 155.527 147.108 154.271 145.868C153.016 144.628 152.161 143.047 151.816 141.327C151.47 139.606 151.649 137.823 152.33 136.202C153.01 134.582 154.162 133.198 155.639 132.226C157.116 131.253 158.852 130.736 160.627 130.74C162.998 130.744 165.27 131.677 166.947 133.333C168.623 134.99 169.568 137.235 169.574 139.578ZM60.0762 148.699C60.0753 149.883 59.7192 151.04 59.053 152.024C58.3867 153.008 57.4402 153.774 56.3332 154.227C55.2262 154.679 54.0083 154.797 52.8336 154.565C51.6589 154.333 50.5802 153.762 49.7338 152.924C48.8874 152.086 48.3114 151.019 48.0785 149.858C47.8457 148.696 47.9666 147.493 48.4258 146.399C48.885 145.306 49.662 144.371 50.6585 143.714C51.655 143.057 52.8263 142.707 54.0241 142.708C54.8195 142.708 55.607 142.864 56.3416 143.165C57.0761 143.467 57.7435 143.908 58.3055 144.464C58.8675 145.021 59.3131 145.681 59.6169 146.407C59.9207 147.134 60.0768 147.913 60.0762 148.699ZM202.517 148.699C202.516 149.883 202.16 151.04 201.493 152.024C200.827 153.008 199.881 153.774 198.774 154.227C197.667 154.679 196.449 154.797 195.274 154.565C194.099 154.333 193.021 153.762 192.174 152.924C191.328 152.086 190.752 151.019 190.519 149.858C190.286 148.696 190.407 147.493 190.866 146.399C191.325 145.306 192.102 144.371 193.099 143.714C194.095 143.057 195.267 142.707 196.465 142.708C198.07 142.709 199.61 143.34 200.746 144.463C201.881 145.585 202.52 147.107 202.521 148.694L202.517 148.699ZM131.299 184.13C131.3 185.314 130.945 186.472 130.28 187.457C129.615 188.442 128.669 189.21 127.562 189.664C126.455 190.118 125.237 190.237 124.062 190.006C122.886 189.775 121.807 189.205 120.959 188.367C120.112 187.53 119.535 186.463 119.302 185.301C119.068 184.139 119.188 182.935 119.647 181.841C120.106 180.747 120.883 179.812 121.88 179.155C122.877 178.497 124.048 178.147 125.247 178.148C126.851 178.15 128.389 178.781 129.523 179.903C130.658 181.024 131.296 182.544 131.299 184.13ZM95.4477 166.403C95.4477 167.587 95.0924 168.745 94.4267 169.729C93.761 170.714 92.8148 171.481 91.7078 171.934C90.6009 172.387 89.3829 172.505 88.2079 172.274C87.0329 172.043 85.9537 171.472 85.1069 170.635C84.26 169.797 83.6835 168.73 83.4504 167.568C83.2172 166.407 83.3378 165.203 83.7969 164.109C84.256 163.015 85.033 162.081 86.0296 161.423C87.0261 160.766 88.1976 160.416 89.3956 160.417C90.1908 160.417 90.9781 160.572 91.7127 160.872C92.4473 161.173 93.1146 161.614 93.6767 162.17C94.2387 162.726 94.6844 163.386 94.9883 164.113C95.2922 164.839 95.4483 165.617 95.4477 166.403ZM166.67 166.403C166.673 167.588 166.32 168.747 165.655 169.734C164.991 170.72 164.045 171.49 162.938 171.945C161.83 172.399 160.611 172.519 159.435 172.288C158.259 172.058 157.179 171.488 156.331 170.649C155.483 169.811 154.906 168.744 154.673 167.581C154.439 166.419 154.561 165.214 155.021 164.119C155.481 163.025 156.259 162.09 157.257 161.433C158.255 160.777 159.428 160.427 160.627 160.43C162.228 160.435 163.762 161.066 164.893 162.185C166.025 163.304 166.662 164.821 166.666 166.403H166.67ZM57.1723 169.765C57.1723 170.384 56.9866 170.989 56.6387 171.504C56.2908 172.018 55.7963 172.42 55.2177 172.656C54.6392 172.893 54.0025 172.955 53.3883 172.835C52.7742 172.714 52.21 172.416 51.7672 171.978C51.3244 171.54 51.0228 170.983 50.9006 170.376C50.7785 169.769 50.8412 169.139 51.0808 168.567C51.3205 167.996 51.7263 167.507 52.247 167.163C52.7677 166.819 53.3798 166.636 54.0061 166.636C54.8458 166.636 55.6511 166.965 56.2449 167.552C56.8387 168.139 57.1723 168.935 57.1723 169.765ZM199.613 169.765C199.613 170.384 199.427 170.989 199.079 171.504C198.731 172.018 198.237 172.42 197.658 172.656C197.08 172.893 196.443 172.955 195.829 172.835C195.215 172.714 194.65 172.416 194.208 171.978C193.765 171.54 193.463 170.983 193.341 170.376C193.219 169.769 193.282 169.139 193.521 168.567C193.761 167.996 194.167 167.507 194.687 167.163C195.208 166.819 195.82 166.636 196.446 166.636C197.286 166.636 198.091 166.965 198.685 167.552C199.279 168.139 199.613 168.935 199.613 169.765ZM128.39 205.205C128.39 205.824 128.205 206.429 127.857 206.944C127.509 207.458 127.014 207.86 126.436 208.096C125.857 208.333 125.22 208.395 124.606 208.274C123.992 208.154 123.428 207.856 122.985 207.418C122.542 206.98 122.241 206.423 122.119 205.816C121.996 205.209 122.059 204.579 122.299 204.007C122.538 203.436 122.944 202.947 123.465 202.603C123.986 202.259 124.598 202.076 125.224 202.076C126.064 202.076 126.869 202.405 127.463 202.992C128.057 203.579 128.39 204.375 128.39 205.205ZM92.5393 187.487C92.5393 188.106 92.3536 188.711 92.0057 189.226C91.6578 189.741 91.1632 190.142 90.5847 190.379C90.0061 190.616 89.3695 190.677 88.7553 190.557C88.1411 190.436 87.577 190.138 87.1342 189.7C86.6913 189.263 86.3898 188.705 86.2676 188.098C86.1454 187.491 86.2081 186.862 86.4478 186.29C86.6874 185.718 87.0933 185.229 87.614 184.885C88.1346 184.541 88.7468 184.358 89.373 184.358C90.2128 184.358 91.0181 184.687 91.6119 185.274C92.2057 185.861 92.5393 186.657 92.5393 187.487ZM163.762 187.487C163.762 188.106 163.576 188.711 163.228 189.226C162.88 189.741 162.386 190.142 161.807 190.379C161.229 190.616 160.592 190.677 159.978 190.557C159.364 190.436 158.799 190.138 158.357 189.7C157.914 189.263 157.612 188.705 157.49 188.098C157.368 187.491 157.431 186.862 157.67 186.29C157.91 185.718 158.316 185.229 158.836 184.885C159.357 184.541 159.969 184.358 160.595 184.358C161.435 184.358 162.241 184.687 162.834 185.274C163.428 185.861 163.762 186.657 163.762 187.487ZM137.106 53.6408C137.106 56.0091 136.396 58.3243 135.064 60.2934C133.733 62.2625 131.841 63.7971 129.627 64.703C127.413 65.6089 124.977 65.8455 122.627 65.3828C120.277 64.9201 118.118 63.7789 116.425 62.1036C114.731 60.4283 113.578 58.2941 113.112 55.971C112.645 53.648 112.887 51.2404 113.805 49.0528C114.723 46.8652 116.277 44.9959 118.27 43.6814C120.263 42.3669 122.606 41.6662 125.002 41.668C128.213 41.6703 131.292 42.9328 133.562 45.1779C135.831 47.423 137.106 50.4669 137.106 53.6408ZM137.106 89.0584C137.106 91.4265 136.396 93.7415 135.065 95.7106C133.733 97.6796 131.841 99.2141 129.628 100.12C127.414 101.026 124.978 101.263 122.628 100.801C120.279 100.338 118.12 99.1977 116.426 97.5228C114.733 95.8479 113.579 93.7142 113.112 91.3914C112.645 89.0686 112.886 86.6611 113.803 84.4735C114.721 82.2858 116.274 80.4162 118.267 79.1012C120.259 77.7861 122.602 77.0847 124.998 77.0856C128.21 77.0868 131.29 78.3487 133.56 80.5939C135.831 82.8391 137.106 85.8838 137.106 89.0584ZM137.106 124.02C137.106 126.388 136.396 128.703 135.065 130.672C133.733 132.641 131.841 134.176 129.628 135.082C127.414 135.988 124.978 136.225 122.628 135.762C120.279 135.3 118.12 134.159 116.426 132.484C114.733 130.81 113.579 128.676 113.112 126.353C112.645 124.03 112.886 121.623 113.803 119.435C114.721 117.247 116.274 115.378 118.267 114.063C120.259 112.748 122.602 112.046 124.998 112.047C126.59 112.048 128.166 112.358 129.636 112.962C131.106 113.565 132.442 114.448 133.567 115.562C134.691 116.675 135.583 117.997 136.19 119.452C136.797 120.906 137.109 122.464 137.106 124.038V124.02ZM208.333 89.0584C208.333 91.4264 207.623 93.7412 206.292 95.7101C204.961 97.679 203.069 99.2136 200.856 100.12C198.642 101.026 196.207 101.263 193.857 100.801C191.507 100.339 189.349 99.1988 187.655 97.5244C185.961 95.85 184.807 93.7166 184.34 91.3941C183.872 89.0716 184.112 86.6643 185.029 84.4766C185.946 82.2888 187.499 80.4189 189.491 79.1034C191.483 77.7878 193.824 77.0856 196.22 77.0856C199.433 77.0856 202.514 78.347 204.786 80.5923C207.057 82.8377 208.333 85.883 208.333 89.0584ZM65.893 89.0584C65.8966 91.4271 65.1892 93.7437 63.8604 95.715C62.5316 97.6862 60.641 99.2236 58.4279 100.133C56.2149 101.041 53.7788 101.281 51.4278 100.821C49.0769 100.361 46.9169 99.2223 45.221 97.5486C43.5252 95.8749 42.3697 93.7416 41.9008 91.4186C41.432 89.0956 41.6708 86.6874 42.5871 84.4986C43.5034 82.3098 45.0559 80.4389 47.0483 79.1225C49.0407 77.8061 51.3834 77.1035 53.7799 77.1035C56.9894 77.1035 60.0677 78.3624 62.3388 80.6039C64.6099 82.8454 65.8883 85.8861 65.893 89.0584ZM101.744 71.3406C101.748 73.7086 101.041 76.0245 99.7126 77.9953C98.3846 79.9662 96.4951 81.5036 94.2831 82.413C92.0711 83.3225 89.6359 83.5632 87.2854 83.1047C84.935 82.6462 82.775 81.5091 81.0784 79.8372C79.3818 78.1652 78.2249 76.0336 77.754 73.7118C77.2831 71.39 77.5193 68.9823 78.4328 66.7932C79.3464 64.6041 80.8961 62.732 82.8861 61.4134C84.8761 60.0949 87.217 59.3893 89.6128 59.3857C92.8254 59.3857 95.9064 60.6471 98.178 62.8925C100.45 65.1378 101.726 68.1831 101.726 71.3585L101.744 71.3406ZM101.726 106.316C101.726 108.684 101.015 110.998 99.6845 112.967C98.3535 114.936 96.4616 116.471 94.2483 117.377C92.0349 118.283 89.5993 118.52 87.2496 118.058C84.8999 117.596 82.7415 116.456 81.0475 114.782C79.3534 113.107 78.1997 110.974 77.7324 108.651C77.265 106.329 77.5048 103.922 78.4217 101.734C79.3385 99.5461 80.891 97.6762 82.883 96.3606C84.875 95.045 87.217 94.3428 89.6128 94.3428C92.8254 94.3428 95.9064 95.6043 98.178 97.8496C100.45 100.095 101.726 103.14 101.726 106.316ZM172.966 71.3585C172.966 73.7265 172.256 76.0413 170.925 78.0102C169.594 79.9791 167.702 81.5137 165.489 82.4199C163.275 83.3261 160.84 83.5632 158.49 83.1012C156.14 82.6393 153.982 81.499 152.288 79.8245C150.594 78.1501 149.44 76.0168 148.973 73.6943C148.506 71.3718 148.745 68.9645 149.662 66.7767C150.579 64.589 152.132 62.7191 154.124 61.4035C156.116 60.0879 158.458 59.3857 160.853 59.3857C164.066 59.3857 167.147 60.6471 169.419 62.8925C171.69 65.1378 172.966 68.1831 172.966 71.3585ZM172.966 106.316C172.966 108.684 172.256 110.998 170.925 112.967C169.594 114.936 167.702 116.471 165.489 117.377C163.275 118.283 160.84 118.52 158.49 118.058C156.14 117.596 153.982 116.456 152.288 114.782C150.594 113.107 149.44 110.974 148.973 108.651C148.506 106.329 148.745 103.922 149.662 101.734C150.579 99.5461 152.132 97.6762 154.124 96.3606C156.116 95.045 158.458 94.3428 160.853 94.3428C164.066 94.3428 167.147 95.6043 169.419 97.8496C171.69 100.095 172.966 103.14 172.966 106.316Z" fill="black"/>
</g>
<defs>
<clipPath id="clip0_37_33895">
<rect width="250" height="250" fill="white"/>
</clipPath>
</defs>
</svg>
